X: 2377
T: CELEBRATED STOP HORNPIPE
%R: hornpipe, reel
B: James Kerr "Merry Melodies" v.2 p.42 #377
Z: 2016 John Chambers <jc:trillian.mit.edu>
M: C
L: 1/8
K: Bb
(uFE) |\
DdcB Agfe | gf d4 (fg) |\
[1,3 (fe)(ed) (dc)(cB) | Bd F4 |\
[2,4 (fe)cA F2GA | B2d2B2 :|
|: (ubg) |\
fdBF DFBd | ecAF EFCE |\
[1,3 DFBA GBed | c=Bcd c2 :|\
[2,4 DFBF GecA | B2d2B2 :|
